!!!!SEGMENT: pl-sa--480-a-viii-120--001_anonim--quem-terra-pontus-sidera.krn
!!!cenid: 17xx:1711
!!!COM: Anonim
!!!COM-rismID: pe30004985
!!!CDT:
!!!CNT:
!!!OTL: Quem terra pontus sidera
!!!PDT:
!!!AGN: Sacred
!!!SMS-siglum: PL-SA
!!!SMS-shelfmark: 480/A VIII 120
!!!SMS-shelfwork: 001 W
!!!SMS-variant:
!!!SMS-altvar:
!!!NIFC-rismSourceID: 1001041375
!!!NIFC-rismChildID: 1001041375
!!!NIFC-islandoraID: none
!!!URL-pdf-islandora:
!!!URL-scan: https://bc.bdsandomierz.pl/dlibra/publication/1206/edition/1165/content @EN{Scan in the Sandomierz Diocese Digital Library} @PL{Skany w portalu Cyfrowa Biblioteka Diecezjalna w Sandomierzu}
!!!ONB-nifc: UWAGA: wpisać oba teksty. Uwaga: utwory w zbiorze: 1. Quem terra pontus sidera, 2. Witaj krynico, 3. Zawitaj córko, 4. Zdrowaś Maryja śpiewajmy
!!!AIN: 1 organ 1 soprn 2 violn
!!!key: G
**kern	**dynam	**kern	**dynam	**kern	**dynam	**kern	**text	**text
*part4	*part4	*part3	*part3	*part2	*part2	*part1	*part1	*part1
*group3	*	*group2	*	*group2	*	*group1	*group1	*group1
*staff4	*	*staff3	*	*staff2	*	*staff1	*staff1	*staff1
*I"Basſo	*	*I"Violino Secundo_	*	*I"Violino Primo	*	*I"Canto Primo.	*	*
*I'bc	*	*I'vl 2	*	*I'vl 1	*	*I'S 1	*	*
*Iorgan	*	*Ivioln	*	*Ivioln	*	*Isoprn	*	*
*ICklav	*	*ICstr	*	*ICstr	*	*ICvox	*	*
*clefF4	*	*clefG2	*	*clefG2	*	*clefC1	*	*
*k[f#]	*	*k[f#]	*	*k[f#]	*	*k[f#]	*	*
*G:	*	*G:	*	*G:	*	*G:	*	*
*M3/4	*	*M3/4	*	*M3/4	*	*M3/4	*	*
=1	=1	=1	=1	=1	=1	=1	=1	=1
*2\right	*2\right	*2\right	*2\right	*2\right	*2\right	*2\right	*2\right	*2\right
!LO:TX:a:i:t=Andantino	!	!LO:TX:a:i:t=Andantino_	!	!LO:TX:a:i:t=andantino .	!	!LO:TX:a:i:t=Andantino	!	!
!	!	!	!	!	!	!LO:TX:a:t=8.	!	!
!	!	!	!	!	!	!LO:N:vis=00	!	!
4GG/	.	8r	.	8d/L	.	0.r	.	.
.	.	8d 8B/	.	8g/J	.	.	.	.
*	*	*tremolo	*	*	*	*	*	*
4G\	.	8dL 8B/	.	4.g/	.	.	.	.
.	.	8d 8B/	.	.	.	.	.	.
4GG/	.	8d 8B/	.	.	.	.	.	.
.	.	8dJ 8B/	.	(16f#/LL	.	.	.	.
.	.	.	.	16g/JJ)	.	.	.	.
*	*	*Xtremolo	*	*	*	*	*	*
=2	=2	=2	=2	=2	=2	=2	=2	=2
8r	.	8r	.	8a/L	.	.	.	.
8D\	.	8d 8c/	.	8f#/J	.	.	.	.
*tremolo	*	*tremolo	*	*	*	*	*	*
8D\L	.	8dL 8c/	.	4.d/	.	.	.	.
8D\	.	8d 8c/	.	.	.	.	.	.
8D\	.	8d 8c/	.	.	.	.	.	.
8D\J	.	8dJ 8c/	.	8d/	.	.	.	.
*Xtremolo	*	*Xtremolo	*	*	*	*	*	*
=3	=3	=3	=3	=3	=3	=3	=3	=3
4D\	.	8r	.	8d/L	.	.	.	.
.	.	8d 8c/	.	8a/J	.	.	.	.
*	*	*tremolo	*	*	*	*	*	*
4D\	.	8dL 8c/	.	4.a/	.	.	.	.
.	.	8d 8c/	.	.	.	.	.	.
4D\	.	8d 8c/	.	.	.	.	.	.
.	.	8dJ 8c/	.	(16f#/LL	.	.	.	.
.	.	.	.	16a/JJ)	.	.	.	.
*	*	*Xtremolo	*	*	*	*	*	*
=4	=4	=4	=4	=4	=4	=4	=4	=4
8r	.	8r	.	8b/L	.	.	.	.
8G\	.	8d 8B/	.	8g/J	.	.	.	.
!LO:TX:t=P:problem=mixed beam	!	!	!	!	!	!	!	!
*	*	*tremolo	*	*	*	*	*	*
8GG/L	.	8dL 8B/	.	4.d/	.	.	.	.
8G\	.	8d 8B/	.	.	.	.	.	.
8GG/	.	8d 8B/	.	.	.	.	.	.
8G\J	.	8dJ 8B/	.	8d/	.	.	.	.
*	*	*Xtremolo	*	*	*	*	*	*
=5	=5	=5	=5	=5	=5	=5	=5	=5
!	!	!	!	!	!	!LO:N:vis=00	!	!
4GG/	.	8g/L	.	8b\L	.	0.r	.	.
.	.	8b/J	.	8dd\J	.	.	.	.
4r	.	4.b/	.	4.dd\	.	.	.	.
4r	.	.	.	.	.	.	.	.
.	.	16a/LL	.	(16cc\LL	.	.	.	.
.	.	16g/JJ	.	16b\JJ)	.	.	.	.
=6	=6	=6	=6	=6	=6	=6	=6	=6
4D/	.	8g/L	.	8b/L	.	.	.	.
.	.	8f#/J	.	8a/J	.	.	.	.
4r	.	4.f#/	.	4.a/	.	.	.	.
4r	.	.	.	.	.	.	.	.
.	.	16g/LL	.	(16b/LL	.	.	.	.
.	.	16a/JJ	.	16cc/JJ)	.	.	.	.
=7	=7	=7	=7	=7	=7	=7	=7	=7
!LO:SIC:v:s=4AA/	!	!	!	!	!	!	!	!
4GG/	.	8a/L	.	8cc\L	.	.	.	.
.	.	8cc/J	.	8ee\J	.	.	.	.
4r	.	4.cc/	.	4.ee\	.	.	.	.
4r	.	.	.	.	.	.	.	.
.	.	16b/LL	.	16dd\LL	.	.	.	.
.	.	16a/JJ	.	16cc\JJ	.	.	.	.
=8	=8	=8	=8	=8	=8	=8	=8	=8
4D\	.	4g/	.	4b\	.	.	.	.
4D\	.	4f#/	.	4a\	.	.	.	.
4r	.	4r	.	4r	.	.	.	.
!	!	!	!	!LO:LB:g=original	!	!	!	!
=9	=9	=9	=9	=9	=9	=9	=9	=9
*	*	*	*	*^	*	*	*	*
*	*	*	*below	*	*	*below	*	*	*
!	!LO:DY:Bi:t=pia	!	!LO:DY:Bi:t=pia	!	!	!LO:DY:Bi:t=piano	!	!	!
4GG/	p	4d 4B/	p	4b/	4g\	p	4d/	Quem	A-
4r	.	4d 4B/	.	4b/	4g\	.	4g/	taer-	-ve
4r	.	4d 4B/	.	4b/	4g\	.	4g/	-ra	re-
*	*	*	*	*v	*v	*	*	*	*
=10	=10	=10	=10	=10	=10	=10	=10	=10
4GG/	.	8B/L	.	8g/L	.	8g\	pon-	-gi-
.	.	8g/J	.	8b/	.	8b\	.	.
4r	.	8b/L	.	8dd/	.	4dd\	-tus	-na
.	.	8g/	.	8b/	.	.	.	.
4r	.	8c/	.	8a/	.	4r	.	.
.	.	8B/J	.	8g/J	.	.	.	.
!	!	!LO:LB:g=original	!	!	!	!	!	!
=11	=11	=11	=11	=11	=11	=11	=11	=11
!	!	!	!	!	!	!LO:SIC:v:l:s=Cae-:2	!	!
4D\	.	4g/	.	4b/	.	8.b\	Si-	Ce-
.	.	.	.	.	.	16b\	-de-	-lo-
8r	.	8f#/L	.	8a/L	.	4a\	-ra	-rum
8D\L	.	8d/	.	8d/	.	.	.	.
8D\	.	8f#/	.	8f#/	.	4r	.	.
8D\J	.	8a/J	.	8a/J	.	.	.	.
!LO:LB:g=original	!	!	!	!	!	!	!	!
=12	=12	=12	=12	=12	=12	=12	=12	=12
4F#\	.	8r	.	8r	.	4a\	Co-	Do-
.	.	8f#/	.	8a/	.	.	.	.
*	*	*tremolo	*	*tremolo	*	*	*	*
4r	.	8f#/L	.	8a/L	.	2cc\	-lunt	-mina
.	.	8f#/	.	8a/	.	.	.	.
4r	.	8f#/	.	8a/	.	.	.	.
.	.	8f#/J	.	8a/J	.	.	.	.
*	*	*Xtremolo	*	*Xtremolo	*	*	*	*
=13	=13	=13	=13	=13	=13	=13	=13	=13
4D\	.	4a\	.	4cc\	.	4cc\	a-	an-
4r	.	4cc\	.	4ee\	.	4ee\	-do-	.
4r	.	4a\	.	4cc\	.	4cc\	-rant	-ge-
=14	=14	=14	=14	=14	=14	=14	=14	=14
8F#\L	.	8.a/L	.	8.cc\L	.	8.cc\	prae-	-lo-
8D\	.	.	.	.	.	.	.	.
.	.	16a/Jk	.	16cc\Jk	.	16cc\	-di-	.
8G\	.	8g/L	.	8b\L	.	4b\	-cant.	-rum
8D\	.	8g/	.	8b\	.	.	.	.
8BB\	.	8a/	.	8cc\	.	4r	.	.
8GG\J	.	8a/J	.	8cc#X\J	.	.	.	.
!	!	!	!	!	!	!LO:LB:g=original	!	!
=15	=15	=15	=15	=15	=15	=15	=15	=15
*	*	*tremolo	*	*tremolo	*	*	*	*
!	!	!	!	!	!	!LO:SIC:v:l:s=Sal-:2	!	!
4GG/	.	8g/L	.	8b\L	.	4dd\	Tri-	Sa-
.	.	8g/	.	8b\	.	.	.	.
4r	.	8g/	.	8b\	.	4b\	-nam	.
.	.	8g/	.	8b\	.	.	.	.
4r	.	8g/	.	8b\	.	4dd\	re-	-ve
.	.	8g/J	.	8b\J	.	.	.	.
*	*	*Xtremolo	*	*Xtremolo	*	*	*	*
=16	=16	=16	=16	=16	=16	=16	=16	=16
4GG/	.	8r	.	8r	.	2gg\	-gen-	ra-
.	.	8g/	.	8b\	.	.	.	.
*	*	*tremolo	*	*tremolo	*	*	*	*
4r	.	8g/L	.	8b\L	.	.	.	.
.	.	8g/	.	8b\	.	.	.	.
4r	.	8g/	.	8b\	.	4b\	-tem	-dix
.	.	8g/J	.	8b\J	.	.	.	.
*	*	*Xtremolo	*	*Xtremolo	*	*	*	*
=17	=17	=17	=17	=17	=17	=17	=17	=17
8.D\L	.	4g/	.	4b\	.	8.b\	ma-	por-
16D\Jk	.	.	.	.	.	16b\	-chi-	.
8F#'\L	.	8f#/L	.	8a\L	.	4a\	-nam	-ta
8A'\	.	8f#/	.	8a\	.	.	.	.
8F#'\	.	8g/	.	8b\	.	4r	.	.
8D'\J	.	8a/J	.	8ccn\J	.	.	.	.
=18	=18	=18	=18	=18	=18	=18	=18	=18
4G\	.	8g/L	.	8b\L	.	8b\	Clau-	Ex
.	.	8b/J	.	8dd\J	.	8dd\	.	qva
!	!	!	!	!	!	!LO:SIC:v:l:s=mun-:2	!	!
4r	.	4.b/	.	4.dd\	.	4.dd\	-strum	mu-
4G\	.	.	.	.	.	.	.	.
.	.	8g/	.	8b\	.	8b\	Ma-	-do
=19	=19	=19	=19	=19	=19	=19	=19	=19
4F#\	.	8b/L	.	8dd\L	.	8dd\L	-ri-	lux
.	.	8a/J	.	8cc#X\J	.	8cc#X\J	.	.
4r	.	4.a/	.	4.ccn\	.	4.ccn\	-ae	.
4D\	.	.	.	.	.	.	.	.
!	!	!	!	!	!	!LO:SIC:v:l:s=est:2	!	!
.	.	8f#/	.	8a\	.	8a\	ba-	ex
=20	=20	=20	=20	=20	=20	=20	=20	=20
4F#\	.	8a/L	.	(8cc\L	.	8cc\L	-ju-	or-
.	.	8g/J	.	8b\J)	.	8b\J	.	.
!	!	!	!LO:DY:Bi:t=for	!	!	!	!	!
8G\L	.	16g/LL	f	16b/LL	.	4b\	-lat	-ta
.	.	16B/	.	16d/	.	.	.	.
8D\	.	16c/	.	16e/	.	.	.	.
!	!	!	!	!	!LO:DY:Bi:t=for.	!	!	!
.	.	16d/JJ	.	16f#/JJ	f	.	.	.
!	!	!	!	!LO:LB:g=original	!	!	!	!
8G\	.	16e/LL	.	16g/LL	.	4r	.	.
.	.	16f#/	.	16a/	.	.	.	.
8D\J	.	16g/	.	16b/	.	.	.	.
.	.	16a/JJ	.	16cc/JJ	.	.	.	.
!	!	!	!	!	!	!LO:LB:g=original	!	!
=21	=21	=21	=21	=21	=21	=21	=21	=21
!	!	!	!	!	!LO:DY:Bi:t=piano	!	!	!
4G\	.	8g/L	.	8b\L	p	8b\L	Clau-	Ex
!	!	!	!LO:DY:Bi:t=pia	!	!	!	!	!
.	.	8b/J	p	8dd\J	.	8dd\J	.	qva
4r	.	4.b/	.	4.dd\	.	4.dd\	-strum	mun-
4G\	.	.	.	.	.	.	.	.
.	.	8g/	.	8b\	.	8b\	Ma-	-do
=22	=22	=22	=22	=22	=22	=22	=22	=22
4F#\	.	8b/L	.	8dd\L	.	8dd\L	-ri-	lux
.	.	8a/J	.	8cc#X\J	.	8cc#X\J	.	.
4r	.	4.a/	.	4.ccn\	.	4.ccn\	-ae	.
4D\	.	.	.	.	.	.	.	.
!	!	!	!	!LO:TX:a:t=a	!	!LO:SIC:v:l:s=est:2	!	!
.	.	8f#/	.	8a\	.	8a\	ba-	ex
=23	=23	=23	=23	=23	=23	=23	=23	=23
4F#\	.	8a/L	.	8cc\L	.	8cc\L	-ju-	or-
.	.	8g/J	.	8b\J	.	8b\J	.	.
8G\L	.	4g/	.	4b\	.	4b\	-lat	-ta
8D\	.	.	.	.	.	.	.	.
8BB\	.	4r	.	4r	.	4r	.	.
8GG\J	.	.	.	.	.	.	.	.
!LO:LB:g=original	!	!LO:LB:g=original	!	!	!	!	!	!
=24	=24	=24	=24	=24	=24	=24	=24	=24
*tremolo	*	*	*	*	*	*	*	*
!	!	!	!	!	!	!LO:TX:a:t=9.	!	!
!LO:TX:t=P:problem=mixed beam	!	!	!LO:DY:rj:Bi:t=for.	!	!LO:DY:Bi:t=for.	!LO:N:vis=00	!	!
8GG/L	.	16B/LL	f	16g/LL	f	0.r	.	.
.	.	16A/	.	16f#/	.	.	.	.
8G\	.	16B/	.	16g/	.	.	.	.
.	.	16A/JJ	.	16f#/JJ	.	.	.	.
*	*	*tremolo	*	*	*	*	*	*
8GG/	.	8B/L	.	8g/L	.	.	.	.
8G\	.	8B/	.	8g/	.	.	.	.
8GG/	.	8B/	.	8g/	.	.	.	.
8G\J	.	8B/J	.	8g#X/J	.	.	.	.
*Xtremolo	*	*Xtremolo	*	*	*	*	*	*
=25	=25	=25	=25	=25	=25	=25	=25	=25
*tremolo	*	*	*	*	*	*	*	*
8D/L	.	4d/	.	4a/	.	.	.	.
8D/	.	.	.	.	.	.	.	.
8D/	.	16d/LL	.	16a/LL	.	.	.	.
.	.	16a/	.	16cc/	.	.	.	.
8D/	.	16f#/	.	16b/	.	.	.	.
.	.	16a/JJ	.	16cc/JJ	.	.	.	.
8D/	.	16b/LL	.	16dd\LL	.	.	.	.
.	.	16a/	.	16cc\	.	.	.	.
8D/J	.	16g/	.	16b\	.	.	.	.
.	.	16f#/JJ	.	16a\JJ	.	.	.	.
*Xtremolo	*	*	*	*	*	*	*	*
=26	=26	=26	=26	=26	=26	=26	=26	=26
!LO:TX:t=P:problem=mixed beam	!	!	!	!	!	!	!	!
8GG/L	.	8g/L	.	8b/L	.	.	.	.
8G\	.	8B/	.	8g/	.	.	.	.
8GG/	.	8B/	.	8g/	.	.	.	.
8G\J	.	8B/J	.	8g#X/J	.	.	.	.
8D\L	.	8c#X/L	.	16a/LL	.	.	.	.
.	.	.	.	16f#/J	.	.	.	.
8D\J	.	8d/J	.	8d/J	.	.	.	.
=27	=27	=27	=27	=27	=27	=27	=27	=27
!	!	!	!	!LO:TX:t=P:problem=mixed beam	!	!	!	!
4D\	.	8d/L	.	8d/L	.	.	.	.
.	.	8a/	.	8cc\	.	.	.	.
8r	.	8g/	.	8b\	.	.	.	.
16D\LL	.	8a/J	.	8cc\J	.	.	.	.
16E\JJ	.	.	.	.	.	.	.	.
8F#\L	.	4f#/	.	4a/	.	.	.	.
8D\J	.	.	.	.	.	.	.	.
=28	=28	=28	=28	=28	=28	=28	=28	=28
!	!	!LO:TX:t=P:problem=mixed beam	!	!LO:TX:t=P:problem=mixed beam	!	!LO:N:vis=00	!	!
4D\	.	8d/L	.	8d/L	.	0.r	.	.
.	.	8b\	.	8dd\	.	.	.	.
8r	.	8a\	.	8cc#X\	.	.	.	.
16G\LL	.	8b\J	.	8dd\J	.	.	.	.
16A\JJ	.	.	.	.	.	.	.	.
8B\L	.	4g/	.	4b\	.	.	.	.
8G\J	.	.	.	.	.	.	.	.
=29	=29	=29	=29	=29	=29	=29	=29	=29
!	!	!LO:TX:t=P:problem=mixed beam	!	!LO:TX:t=P:problem=mixed beam	!	!	!	!
4E\	.	8e/L	.	8e/L	.	.	.	.
.	.	8cc\	.	8ee\	.	.	.	.
4r	.	8b\	.	8dd\	.	.	.	.
.	.	8a\	.	8cc\	.	.	.	.
4r	.	8g\	.	8b\	.	.	.	.
.	.	8f#\J	.	8a\J	.	.	.	.
!	!	!	!	!LO:LB;g=original	!	!	!	!
=30	=30	=30	=30	=30	=30	=30	=30	=30
4G\	.	8dL 8B/	.	8g/L	.	.	.	.
.	.	8d/	.	8f#/J	.	.	.	.
8r	.	8d 8B/	.	16f#/LL	.	.	.	.
.	.	.	.	16g/	.	.	.	.
8G\L	.	8d/J	.	16a/	.	.	.	.
.	.	.	.	16b/JJ	.	.	.	.
8F#\	.	8dL 8c/	.	16cc/LL	.	.	.	.
.	.	.	.	16a/	.	.	.	.
8D\J	.	8d/J	.	16g/	.	.	.	.
.	.	.	.	16f#/JJ	.	.	.	.
=31	=31	=31	=31	=31	=31	=31	=31	=31
4G\	.	8dL 8B/	.	8g/L	.	.	.	.
.	.	8d/	.	8f#/J	.	.	.	.
8r	.	8d 8B/	.	16f#/LL	.	.	.	.
.	.	.	.	16g/	.	.	.	.
8G\L	.	8d/J	.	16a/	.	.	.	.
.	.	.	.	16b/JJ	.	.	.	.
8F#\	.	8dL 8c/	.	16cc/LL	.	.	.	.
.	.	.	.	16a/	.	.	.	.
8D\J	.	8d/J	.	16f#/	.	.	.	.
.	.	.	.	16a/JJ	.	.	.	.
=32	=32	=32	=32	=32	=32	=32	=32	=32
4D/	.	4d 4c/	.	4a/	.	2.r	.	.
4GG/	.	4d 4B/	.	4g/	.	.	.	.
4r	.	4r	.	4r	.	.	.	.
=33	=33	=33	=33	=33	=33	=33	=33	=33
!	!LO:DY:Bi:t=pia	!	!LO:DY:Bi:t=piano	!	!LO:DY:Bi:t=piano	!	!	!
4GG/	p	4b\	p	4dd\	p	4dd\	Be-	Ga-
4r	.	4b\	.	4dd\	.	4dd\	-a-	.
4r	.	4b\	.	4gg\	.	4gg\	-ta	-vde
=34	=34	=34	=34	=34	=34	=34	=34	=34
!LO:TX:t=P:problem=wykreślona dynamika pia	!	!	!	!	!	!	!	!
4D\	.	(2dd\	.	2ff#\	.	2ff#\	Ma-	Vir-
4D\	.	.	.	.	.	.	.	.
4A\	.	4cc\)	.	4ee\	.	4ee\	-ter	.
=35	=35	=35	=35	=35	=35	=35	=35	=35
4A\	.	(8cc\L	.	8ee\L	.	8ee\L	mu-	.
.	.	8b\J	.	8dd\J	.	8dd\J	-ne-	.
4G\	.	4b\)	.	4dd\	.	4dd\	-re	-go
4GG/	.	4r	.	4r	.	4r	.	.
!LO:LB:g=original	!	!LO:LB:g=original	!	!	!	!	!	!
=36	=36	=36	=36	=36	=36	=36	=36	=36
4A'\	.	4a/	.	4cc\	.	4cc\	Cu-	Glo-
4F#'\	.	4a/	.	4cc\	.	4cc\	-jus	.
4D'\	.	4a/	.	4cc\	.	4cc\	su-	-ri-
!	!	!	!	!	!	!LO:LB:g=original	!	!
=37	=37	=37	=37	=37	=37	=37	=37	=37
4D\	.	4cc\	.	4aa\	.	4aa\	-per-	-o-
8D\L	.	8cc\L	.	8aa\L	.	8aa\L	.	.
8E\	.	8dd\	.	8ff#\J	.	8ff#\J	.	.
8F#\	.	8b\	.	8dd\L	.	8dd\L	-nus	.
8D\J	.	8a\J	.	8cc\J	.	8cc\J	.	.
=38	=38	=38	=38	=38	=38	=38	=38	=38
4r	.	8.a/L	.	8.cc\L	.	8.cc\L	ar-	.
.	.	16a/Jk	.	16cc\Jk	.	16cc\Jk	-ti-	.
4G\	.	4g/	.	4b\	.	4b\	-fex	-sa
4GG/	.	4r	.	4r	.	4r	.	.
=39	=39	=39	=39	=39	=39	=39	=39	=39
*tremolo	*	*	*	*	*	*	*	*
!LO:TX:t=P:problem=mixed beam	!	!	!	!	!	!	!	!
8GG/L	.	8r	.	8r	.	4dd\	Mun-	Su-
8G\	.	8b\	.	8dd\	.	.	.	.
*	*	*tremolo	*	*tremolo	*	*	*	*
8GG/	.	8b\L	.	8dd\L	.	4b\	-dum	.
8G\	.	8b\	.	8dd\	.	.	.	.
8GG/	.	8b\	.	8dd\	.	4dd\	pu-	-per
8G\J	.	8b\J	.	8dd\J	.	.	.	.
*Xtremolo	*	*Xtremolo	*	*Xtremolo	*	*	*	*
=40	=40	=40	=40	=40	=40	=40	=40	=40
4GG/	.	4b\	.	4dd\	.	4.dd\	-gil-	o-
4r	.	4r	.	4r	.	.	.	.
.	.	.	.	.	.	8ee\	.	.
4D/	.	4r	.	4r	.	4cc\	-lo	.
!	!	!	!	!LO:LB:g=original	!	!	!	!
=41	=41	=41	=41	=41	=41	=41	=41	=41
4D\	.	8a/L	.	8cc\L	.	8cc\	con-	.
.	.	8f#/	.	8a\J	.	8a\	-ti-	.
4G\	.	8g/	.	8b\L	.	4b\	-nens	-mnes
.	.	8g/	.	8b\	.	.	.	.
4GG/	.	8a/	.	8cc\	.	4r	.	.
.	.	8a/J	.	8cc#X\J	.	.	.	.
=42	=42	=42	=42	=42	=42	=42	=42	=42
*tremolo	*	*	*	*	*	*	*	*
!LO:TX:t=P:problem=mixed beam	!	!	!	!	!	!	!	!
8GG/L	.	4b/	.	4dd\	.	4dd\	Ven-	Spe-
8G\	.	.	.	.	.	.	.	.
8GG/	.	4r	.	4r	.	4b\	-tris	.
8G\	.	.	.	.	.	.	.	.
8GG/	.	4r	.	4r	.	4dd\	sub	.
8G\J	.	.	.	.	.	.	.	.
*Xtremolo	*	*	*	*	*	*	*	*
=43	=43	=43	=43	=43	=43	=43	=43	=43
!	!	!LO:TX:t=P:problem=t. 43 zapisany repetycją	!	!LO:TX:t=P:problem=t. 43 zapisany repetycją	!	!	!	!
4GG/	.	4b/yy	.	4dd\yy	.	4.dd\	ar-	.
4r	.	4ryy	.	4ryy	.	.	.	.
.	.	.	.	.	.	8ee\	.	.
4D/	.	4ryy	.	4ryy	.	4cc\	-ca	-ci-
!	!	!	!	!	!	!LO:LB:g=original	!	!
=44	=44	=44	=44	=44	=44	=44	=44	=44
8F#'\L	.	8a/L	.	8ccn\L	.	8cc\L	clau-	-o-
8D'\J	.	8f#/J	.	8a\J	.	8a\J	-sus	.
(16D\LL	.	4g/	.	4b\	.	4b\	est	-sa
16E\	.	.	.	.	.	.	.	.
16F#\)	.	.	.	.	.	.	.	.
16D\JJ	.	.	.	.	.	.	.	.
!LO:TX:t=P:problem=mixed beam	!	!	!	!	!	!	!	!
8G\L	.	4r	.	4r	.	4r	.	.
8GG/J	.	.	.	.	.	.	.	.
=45	=45	=45	=45	=45	=45	=45	=45	=45
!	!	!	!	!	!	!LO:TX:a:t=15.	!	!
!	!LO:DY:Bi:t=for.	!	!LO:DY:Bi:t=for.	!	!LO:DY:Bi:t=for.	!LO:N:vis=00	!	!
(16A\LL	f	16a/LL	f	16a/LL	f	0.r	.	.
16G\	.	16g/	.	16g/	.	.	.	.
16F#\	.	16f#/	.	16f#/	.	.	.	.
16E\JJ)	.	16e/JJ	.	16e/JJ	.	.	.	.
4D\	.	4d/	.	4d/	.	.	.	.
4D\	.	4d/	.	4d/	.	.	.	.
=46	=46	=46	=46	=46	=46	=46	=46	=46
4D\	.	8d/L	.	8d'/L	.	.	.	.
.	.	8c#X/	.	8e'/	.	.	.	.
4r	.	8d/	.	8f#'/	.	.	.	.
.	.	8e/	.	8g'/	.	.	.	.
4r	.	8f#/	.	8a'/	.	.	.	.
.	.	8g/J	.	8b'/J	.	.	.	.
!LO:LB:g=original	!	!	!	!	!	!	!	!
=47	=47	=47	=47	=47	=47	=47	=47	=47
*tremolo	*	*	*	*	*	*	*	*
(8A\L	.	4a/	.	4cc\	.	.	.	.
8F#\	.	.	.	.	.	.	.	.
8A\	.	8r	.	8r	.	.	.	.
8F#\	.	8a/	.	8cc\	.	.	.	.
8A\	.	4f#/	.	4a/	.	.	.	.
8F#\J)	.	.	.	.	.	.	.	.
*Xtremolo	*	*	*	*	*	*	*	*
=48	=48	=48	=48	=48	=48	=48	=48	=48
4D\	.	8B/L	.	8d'/L	.	.	.	.
.	.	8g/J	.	8g'/	.	.	.	.
4r	.	8g/L	.	8g'/	.	.	.	.
.	.	8f#/	.	8a'/	.	.	.	.
4r	.	8g/	.	8b'/	.	.	.	.
.	.	8a/J	.	8cc'/J	.	.	.	.
=49	=49	=49	=49	=49	=49	=49	=49	=49
*tremolo	*	*	*	*	*	*	*	*
!	!	!	!	!	!	!LO:N:vis=00	!	!
(8B\L	.	4b\	.	4dd\	.	0.r	.	.
8G\	.	.	.	.	.	.	.	.
8B\	.	8r	.	8r	.	.	.	.
8G\	.	8b\	.	8dd\	.	.	.	.
8B\	.	4g/	.	4b\	.	.	.	.
8G\J)	.	.	.	.	.	.	.	.
*Xtremolo	*	*	*	*	*	*	*	*
!	!	!LO:LB:g=original	!	!	!	!	!	!
=50	=50	=50	=50	=50	=50	=50	=50	=50
4c\	.	4cc\	.	4ee\	.	.	.	.
4r	.	8r	.	8r	.	.	.	.
.	.	8cc\L	.	8ee\L	.	.	.	.
4r	.	8ee\	.	8gg\	.	.	.	.
.	.	8cc\J	.	8ee\J	.	.	.	.
=51	=51	=51	=51	=51	=51	=51	=51	=51
16d\LL	.	16b/LL	.	(16dd\LL	.	.	.	.
16c#X\	.	16a/	.	16cc#X\	.	.	.	.
16d\	.	16b/	.	16dd\	.	.	.	.
16B\JJ	.	16g/JJ	.	16b\JJ)	.	.	.	.
*tremolo	*	*	*	*	*	*	*	*
8G\L	.	4B/	.	4g/	.	.	.	.
8G\	.	.	.	.	.	.	.	.
8G\	.	8r	.	8r	.	.	.	.
*Xtremolo	*	*	*	*	*	*	*	*
8G\J	.	8B/	.	8g/	.	.	.	.
=52	=52	=52	=52	=52	=52	=52	=52	=52
8A'\L	.	4f#/	.	4a/	.	.	.	.
8F#'\J	.	.	.	.	.	.	.	.
8D'\L	.	16r	.	16r	.	.	.	.
.	.	16a/LL	.	16ccn\LL	.	.	.	.
8F#'\J	.	16g/	.	16b\	.	.	.	.
.	.	16a/JJ	.	16cc\JJ	.	.	.	.
8A'\L	.	16b/LL	.	16dd\LL	.	.	.	.
.	.	16a/	.	16cc\	.	.	.	.
8F#'\J	.	16g/	.	16b\	.	.	.	.
.	.	16f#/JJ	.	16a\JJ	.	.	.	.
!	!	!	!	!LO:LB:g=original	!	!	!	!
=53	=53	=53	=53	=53	=53	=53	=53	=53
!	!	!	!	!	!	!LO:N:vis=00	!	!
8B'\L	.	8g/L	.	8b\L	.	0.r	.	.
8G'\J	.	8b/	.	8gg\	.	.	.	.
8D'\L	.	8a/	.	8ff#\	.	.	.	.
8G'\J	.	8cc/J	.	8ee\J	.	.	.	.
8B'\L	.	4b\	.	4dd\	.	.	.	.
8G'\J	.	.	.	.	.	.	.	.
=54	=54	=54	=54	=54	=54	=54	=54	=54
*tremolo	*	*	*	*	*	*	*	*
8D\L	.	8d/L	.	16a/LL	.	.	.	.
.	.	.	.	16f#/J	.	.	.	.
8D\	.	8.d/J	.	8.d/J	.	.	.	.
8D\	.	.	.	.	.	.	.	.
.	.	16a/LL	.	(16cc\LL	.	.	.	.
8D\	.	16g/	.	16b\	.	.	.	.
.	.	16a/JJ	.	16cc\JJ)	.	.	.	.
8D\	.	16b/LL	.	(16dd\LL	.	.	.	.
.	.	16a/	.	16cc\	.	.	.	.
8D\J	.	16g/	.	16b\	.	.	.	.
.	.	16a/JJ	.	16cc\JJ)	.	.	.	.
*Xtremolo	*	*	*	*	*	*	*	*
=55	=55	=55	=55	=55	=55	=55	=55	=55
4G\	.	16g/LL	.	16b\LL	.	.	.	.
.	.	16b/	.	16dd\	.	.	.	.
.	.	16a/	.	16cc#X\	.	.	.	.
.	.	16b/JJ	.	16dd\JJ	.	.	.	.
8r	.	16cc/LL	.	16ee\LL	.	.	.	.
.	.	16b/	.	16dd\	.	.	.	.
8G\	.	16a/	.	16cc#\	.	.	.	.
.	.	16b/JJ	.	16dd\JJ	.	.	.	.
4D\	.	8b/L	.	8gg\L	.	.	.	.
.	.	8g/J	.	8b\J	.	.	.	.
=56	=56	=56	=56	=56	=56	=56	=56	=56
8G'\L	.	16g/LL	.	16b\LL	.	.	.	.
.	.	(16a/	.	(16cc\	.	.	.	.
8D'\	.	16a/	.	16cc#X\	.	.	.	.
.	.	16b/JJ	.	16dd\JJ)	.	.	.	.
!	!	!	!	!LO:SIC:v:s=4.dd/:t=lub 4.b/	!	!	!	!
8F#'\	.	8b/L)	.	4.a/	.	.	.	.
8D'\	.	8g/J	.	.	.	.	.	.
8F#'\	.	16f#/LL	.	.	.	.	.	.
.	.	(16d/	.	.	.	.	.	.
8D'\J	.	16f#/	.	8ccn\	.	.	.	.
.	.	16a/JJ)	.	.	.	.	.	.
=57	=57	=57	=57	=57	=57	=57	=57	=57
!	!	!	!	!	!	!LO:N:vis=0	!	!
4G\	.	(16g/LL	.	(16b\LL	.	1.r	.	.
.	.	16b/	.	16dd\)	.	.	.	.
.	.	16b'/)	.	16dd'\	.	.	.	.
.	.	16b'/JJ	.	16dd'\JJ	.	.	.	.
8r	.	8b/L	.	8gg'\L	.	.	.	.
8G\L	.	8g/J	.	8b'\J	.	.	.	.
8F#\	.	16f#/LL	.	16a/LL	.	.	.	.
.	.	16d/	.	16f#/	.	.	.	.
8D\J	.	16f#/	.	16a/	.	.	.	.
.	.	16a/JJ	.	16cc/JJ	.	.	.	.
!LO:LB:g=original	!	!	!	!	!	!	!	!
=58	=58	=58	=58	=58	=58	=58	=58	=58
!	!	!LO:TX:t=P:problem=t. 58 zapisany repetycją	!	!	!	!	!	!
4G\	.	(y16g/LLyy	.	(16b\LL	.	.	.	.
.	.	16b/yy	.	16dd\)	.	.	.	.
.	.	16b'/)yy	.	16dd'\	.	.	.	.
.	.	16b'/JJyy	.	16dd'\JJ	.	.	.	.
8r	.	8b/Lyy	.	8gg'\L	.	.	.	.
8G\L	.	8g/Jyy	.	8b'\J	.	.	.	.
8F#\	.	16f#/LLyy	.	16a/LL	.	.	.	.
.	.	16d/yy	.	(16f#/	.	.	.	.
8D\J	.	16f#/yy	.	16a/	.	.	.	.
.	.	16a/JJyy	.	16cc/JJ)	.	.	.	.
!	!	!LO:LB:g=original	!	!	!	!	!	!
=59	=59	=59	=59	=59	=59	=59	=59	=59
4D/	.	4a/	.	4cc\	.	2.r	.	.
4GG/	.	4g/	.	4b\	.	.	.	.
4r	.	4r	.	4r	.	.	.	.
=60	=60	=60	=60	=60	=60	=60	=60	=60
!	!LO:DY:Bi:t=pia	!	!	!	!	!	!	!
4GG/	p	8r	.	8r	.	4dd\	Je-	Va-
!	!	!	!LO:DY:Bi:t=pia	!	!LO:DY:Bi:t=piano	!	!	!
.	.	8b\	p	8dd\	p	.	.	.
*	*	*tremolo	*	*tremolo	*	*	*	*
4G\	.	8b\L	.	8dd\L	.	4b\	-su	.
.	.	8b\	.	8dd\	.	.	.	.
4r	.	8b\	.	8dd\	.	4dd\	ti-	.
.	.	8b\J	.	8dd\J	.	.	.	.
*	*	*Xtremolo	*	*Xtremolo	*	*	*	*
=61	=61	=61	=61	=61	=61	=61	=61	=61
*tremolo	*	*	*	*	*	*	*	*
8G\L	.	4b\	.	4gg\	.	2gg\	-bi	.
8G\	.	.	.	.	.	.	.	.
8G\	.	4r	.	4r	.	.	.	.
8G\	.	.	.	.	.	.	.	.
8G\	.	4r	.	4r	.	4b\	sit	.
8G\J	.	.	.	.	.	.	.	.
*Xtremolo	*	*	*	*	*	*	*	*
!	!	!	!	!LO:LB:g=original	!	!	!	!
=62	=62	=62	=62	=62	=62	=62	=62	=62
4G\	.	8.g/L	.	8.b\L	.	8.b\	Glo-	.
.	.	16g/Jk	.	16b\Jk	.	16b\	-ri-	.
!	!	!	!	!	!	!LO:SIC:v:l:s=-le:2	!	!
8D\L	.	4f#/	.	4a/	.	4a\	-a	-de
8E\	.	.	.	.	.	.	.	.
8F#\	.	4r	.	4r	.	4r	.	.
8D\J	.	.	.	.	.	.	.	.
=63	=63	=63	=63	=63	=63	=63	=63	=63
4D\	.	8r	.	8r	.	4cc\	Je-	Val-
.	.	8a/	.	8cc\	.	.	.	.
*	*	*tremolo	*	*tremolo	*	*	*	*
4F#\	.	8a/L	.	8cc\L	.	4a\	-su	-de
.	.	8a/	.	8cc\	.	.	.	.
4A\	.	8a/	.	8cc\	.	4cc\	ti-	de-
.	.	8a/J	.	8cc\J	.	.	.	.
*	*	*Xtremolo	*	*Xtremolo	*	*	*	*
=64	=64	=64	=64	=64	=64	=64	=64	=64
*tremolo	*	*	*	*	*	*	*	*
8c\L	.	4cc\	.	4aa\	.	2aa\	-bi	-co-
8c\	.	.	.	.	.	.	.	.
8c\	.	4r	.	4r	.	.	.	.
8c\	.	.	.	.	.	.	.	.
8c\	.	4r	.	4r	.	4cc\	sit	.
8c\J	.	.	.	.	.	.	.	.
*Xtremolo	*	*	*	*	*	*	*	*
=65	=65	=65	=65	=65	=65	=65	=65	=65
4F#\	.	8.a/L	.	8.cc\L	.	8.cc\	Glo-	.
.	.	16a/Jk	.	16cc\Jk	.	16cc\	-ri-	.
4G\	.	4g/	.	4b\	.	4b\	-a	-ra
4GG/	.	4r	.	4r	.	4r	.	.
!	!	!	!	!	!	!LO:LB:g=original	!	!
=66	=66	=66	=66	=66	=66	=66	=66	=66
4G\	.	4b\	.	4dd\	.	4dd\	Qvi	Et
4r	.	4r	.	4r	.	4dd\	na-	.
4r	.	4b\	.	4dd\	.	4dd\	-tus	pro
=67	=67	=67	=67	=67	=67	=67	=67	=67
4G\	.	2dd\	.	2ffn\	.	2ffn\	es	no-
4B\	.	.	.	.	.	.	.	.
4G\	.	4d/	.	4b\	.	4b\	de	.
=68	=68	=68	=68	=68	=68	=68	=68	=68
4B\	.	8fn/L	.	8dd\L	.	8dd\L	Vir-	.
.	.	8e/J	.	8cc\J	.	8cc\J	-gi-	.
*	*	*tremolo	*	*tremolo	*	*	*	*
8c\L	.	8e/L	.	8cc\L	.	4cc\	-ne	-bis
8G\	.	8e/	.	8cc\	.	.	.	.
8E\	.	8e/	.	8cc\	.	4r	.	.
8C\J	.	8e/J	.	8cc\J	.	.	.	.
*	*	*Xtremolo	*	*Xtremolo	*	*	*	*
=69	=69	=69	=69	=69	=69	=69	=69	=69
4AA/	.	4cc#X\	.	4ee\	.	4ee\	Qvi	Et
4r	.	4r	.	4r	.	4ee\	na-	.
4r	.	4cc#\	.	4ee\	.	4ee\	-tus	pro
=70	=70	=70	=70	=70	=70	=70	=70	=70
4A\	.	4ee\	.	4gg\	.	2gg\	es	no-
4c#X\	.	4r	.	4r	.	.	.	.
4A\	.	4r	.	4r	.	4cc#X\	de	.
!LO:LB:g=original	!	!	!	!	!	!	!	!
=71	=71	=71	=71	=71	=71	=71	=71	=71
4c#X\	.	8g/L	.	8ee\L	.	8ee\L	Vir-	.
.	.	8f#X/J	.	8dd\J	.	8dd\J	-gi-	.
8d\L	.	4f#/	.	4dd\	.	4dd\	-ne	-bis
8A\	.	.	.	.	.	.	.	.
8F#\	.	4r	.	4r	.	4r	.	.
8D\J	.	.	.	.	.	.	.	.
=72	=72	=72	=72	=72	=72	=72	=72	=72
4G\	.	4b\	.	4dd\	.	4dd\	Cum	Chry-
4r	.	4r	.	4r	.	4gg\	pa-	.
4r	.	4g/	.	4b\	.	4b\	-tre	.
!	!	!LO:LB:g=original	!	!	!	!	!	!
=73	=73	=73	=73	=73	=73	=73	=73	=73
!	!	!	!	!	!	!LO:SIC:v:l:s=et	!	!
8r	.	8b\L	.	8dd\L	.	8dd\L	ae	.
8D\	.	8a\J	.	8cc\J	.	8cc\J	.	.
*tremolo	*	*	*	*	*	*	*	*
!	!	!	!	!	!	!LO:LB:g=original	!	!
8D\L	.	4f#/	.	4a/	.	4a\	al-	-stum
8D\	.	.	.	.	.	.	.	.
8D\	.	4a/	.	4cc/	.	4cc\	-mo	ex-
8D\J	.	.	.	.	.	.	.	.
*Xtremolo	*	*	*	*	*	*	*	*
=74	=74	=74	=74	=74	=74	=74	=74	=74
4F#\	.	8.a/L	.	8.cc\L	.	8.cc\	Spi-	-o-
.	.	16a/Jk	.	16cc\Jk	.	16cc\	-ri-	.
4G\	.	4g/	.	4b\	.	4b\	-tu	-ra
4GG/	.	4r	.	4r	.	4r	.	.
!	!	!	!	!LO:LB:g=original	!	!	!	!
=75	=75	=75	=75	=75	=75	=75	=75	=75
4GG/	.	4b\	.	4dd\	.	4dd\	In	o-
4G\	.	4r	.	4r	.	4gg\	sem-	.
4r	.	4g/	.	4b\	.	4b\	-pi-	.
=76	=76	=76	=76	=76	=76	=76	=76	=76
8r	.	8b/L	.	8dd\L	.	8dd\L	-ter-	.
8D\	.	8a/J	.	8cc\J	.	8cc\J	.	.
*tremolo	*	*	*	*	*	*	*	*
8D\L	.	4f#/	.	4a/	.	4a\	.	.
8D\	.	.	.	.	.	.	.	.
8D\	.	4a/	.	4cc/	.	4cc\	-na	.
8D\J	.	.	.	.	.	.	.	.
*Xtremolo	*	*	*	*	*	*	*	*
=77	=77	=77	=77	=77	=77	=77	=77	=77
4r	.	8.a/L	.	8.cc\L	.	8.cc\	sae-	.
.	.	16a/Jk	.	16cc\Jk	.	16cc\	-cu-	.
4G\	.	4g/	.	4b/	.	4b\	-la	-ra
4GG/	.	4r	.	4r	.	4r	.	.
=78	=78	=78	=78	=78	=78	=78	=78	=78
4GG/	.	8r	.	8r	.	4d/	a-	o-
.	.	8d 8B/	.	8g/	.	.	.	.
*	*	*tremolo	*	*tremolo	*	*	*	*
4G\	.	8dL 8B/	.	8g/L	.	4g/	-men	-ra
.	.	8d 8B/	.	8g/	.	.	.	.
4r	.	8d 8B/	.	8g/	.	4r	.	.
.	.	8dJ 8B/	.	8g/J	.	.	.	.
*	*	*Xtremolo	*	*Xtremolo	*	*	*	*
=79	=79	=79	=79	=79	=79	=79	=79	=79
4GG/	.	8r	.	8r	.	4g\	a-	o-
.	.	8g/	.	8b\	.	.	.	.
*	*	*tremolo	*	*tremolo	*	*	*	*
4G\	.	8g/L	.	8b\L	.	4b\	-men	-ra
.	.	8g/	.	8b\	.	.	.	.
4r	.	8g/	.	8b\	.	4r	.	.
.	.	8g/J	.	8b\J	.	.	.	.
*	*	*Xtremolo	*	*Xtremolo	*	*	*	*
!	!	!	!	!	!	!LO:LB:g=original	!	!
=80	=80	=80	=80	=80	=80	=80	=80	=80
4D\	.	8a'/	.	8ff#'\L	.	4ff#\	a-	o-
.	.	8r	.	8dd'\	.	.	.	.
4G\	.	8b'/	.	8gg'\	.	4gg\	-men	-ra
.	.	8r	.	8dd'\	.	.	.	.
4r	.	8cc'/	.	8aa'\	.	4r	.	.
.	.	8r	.	8dd\J	.	.	.	.
=81	=81	=81	=81	=81	=81	=81	=81	=81
!	!	!LO:SIC:v:s=8a'\L	!	!	!	!	!	!
4D\	.	8b'\L	.	8dd\L	.	4ff#\	a-	o-
.	.	(16cc\L	.	16ee\L	.	.	.	.
.	.	16a\JJ)	.	16ff#\JJ	.	.	.	.
4G\	.	8g'/L	.	8gg\L	.	4gg\	-men	-ra
.	.	8d'/	.	8dd\	.	.	.	.
4r	.	8B'/	.	8b\	.	4r	.	.
.	.	8G'/J	.	8g\J	.	.	.	.
!LO:LB:g=original	!	!	!	!	!	!	!	!
=82	=82	=82	=82	=82	=82	=82	=82	=82
!	!	!	!	!	!	!LO:TX:a:t=8.	!	!
!	!LO:DY:Bi:t=for.	!	!LO:DY:Bi:t=for	!	!LO:DY:Bi:t=for.	!LO:N:vis=00	!	!
4D\	f	4d/	f	4f#/	f	0.r	.	.
4DD/	.	(16d/LL	.	16f#/LL	.	.	.	.
.	.	16e/	.	16g/	.	.	.	.
.	.	16d/)	.	16f#/	.	.	.	.
.	.	16e/JJ	.	16g/JJ	.	.	.	.
4r	.	8f#/L	.	8a/L	.	.	.	.
.	.	8f#/J	.	8a/J	.	.	.	.
=83	=83	=83	=83	=83	=83	=83	=83	=83
4D\	.	4f#/	.	4a/	.	.	.	.
4DD/	.	16f#/LL	.	16a/LL	.	.	.	.
.	.	(16g/	.	16b/	.	.	.	.
.	.	16f#/	.	16a/	.	.	.	.
.	.	16g/JJ)	.	16b/JJ	.	.	.	.
4r	.	8a/L	.	8cc\L	.	.	.	.
.	.	8a/J	.	8cc\J	.	.	.	.
!	!	!LO:LB:g=original	!	!	!	!	!	!
=84	=84	=84	=84	=84	=84	=84	=84	=84
*	*	*tremolo	*	*	*	*	*	*
!	!	!LO:TX:t=P:tremolo-dots:problem	!	!	!	!	!	!
8D'\L	.	(8a/L	.	8cc\	.	.	.	.
8F#'\	.	8f#/	.	4aa\	.	.	.	.
8A'\	.	8a/	.	.	.	.	.	.
8F#'\	.	8f#/	.	4ff#\	.	.	.	.
8D'\	.	8a/	.	.	.	.	.	.
8F#'\J	.	8f#/J)	.	8cc\	.	.	.	.
*	*	*Xtremolo	*	*	*	*	*	*
!	!	!	!	!LO:LB:g=original	!	!	!	!
=85	=85	=85	=85	=85	=85	=85	=85	=85
4G\	.	4g/	.	4b\	.	.	.	.
4GG/	.	16g/LL	.	16b\LL	.	.	.	.
.	.	16a/	.	(16cc\	.	.	.	.
.	.	16g/	.	16b\	.	.	.	.
.	.	16a/J	.	16cc\JJ)	.	.	.	.
4r	.	8b/	.	8dd\L	.	.	.	.
.	.	8b/J	.	8dd\J	.	.	.	.
=86	=86	=86	=86	=86	=86	=86	=86	=86
*	*	*tremolo	*	*	*	*	*	*
!	!	!LO:TX:t=P:tremolo-dots:problem	!	!	!	!LO:N:vis=00	!	!
8D'\L	.	(8b/L	.	8dd\	.	0.r	.	.
8G'\	.	8g/	.	4bb\	.	.	.	.
8B'\	.	8b/	.	.	.	.	.	.
8G'\	.	8g/	.	4gg\	.	.	.	.
8D'\	.	8b/	.	.	.	.	.	.
8G'\J	.	8g/J)	.	8dd\	.	.	.	.
*	*	*Xtremolo	*	*	*	*	*	*
=87	=87	=87	=87	=87	=87	=87	=87	=87
!LO:TX:t=P:problem=mixed beam	!	!	!	!	!	!	!	!
8G'\L	.	8.b\L	.	8.dd\L	.	.	.	.
8GG'/	.	.	.	.	.	.	.	.
.	.	16cc\K	.	16ee\K	.	.	.	.
8G'\	.	8.b\	.	8.dd\	.	.	.	.
8GG'/	.	.	.	.	.	.	.	.
!	!	!	!	!LO:N:vis=8	!	!	!	!
.	.	16cc\Jk	.	16ee\Jk	.	.	.	.
8F#'\	.	16b/LL	.	16dd\LL	.	.	.	.
.	.	(16a/	.	(16cc\	.	.	.	.
8D'\J	.	16f#/	.	16a\	.	.	.	.
.	.	16a/JJ)	.	16cc\JJ)	.	.	.	.
=88	=88	=88	=88	=88	=88	=88	=88	=88
!LO:TX:t=P:problem=mixed beam	!	!	!	!	!	!	!	!
8G'\L	.	(16a/LL	.	16cc\LL	.	.	.	.
.	.	16g/J)	.	16b\J	.	.	.	.
8GG'/	.	8b'/J	.	8dd\J	.	.	.	.
8G'\	.	8r	.	8r	.	.	.	.
8GG'/	.	(16b\LL	.	(16dd\LL	.	.	.	.
.	.	16cc\JJ)	.	16ee\JJ)	.	.	.	.
8F#'\	.	(16b\LL	.	16dd\LL	.	.	.	.
.	.	16a\	.	16cc\	.	.	.	.
8D'\J	.	16f#\	.	16a\	.	.	.	.
.	.	16a\JJ)	.	16cc\JJ	.	.	.	.
=89	=89	=89	=89	=89	=89	=89	=89	=89
4D/	.	4a/	.	4cc\	.	.	.	.
4GG/	.	4g/	.	4b\	.	.	.	.
4r	.	4r	.	4r	.	.	.	.
!LO:TX:t=89.	!	!LO:TX:t=89.	!	!LO:TX:t=89.	!	!	!	!
==;	==	==;	==	==;	==	==	==	==
*-	*-	*-	*-	*-	*-	*-	*-	*-
!!!system-decoration: g1[g2]g3
!!!RDF**kern: | = vertical stroke
!!!ENC: Katarzyna Serwa
!!!END: 2022-01-12
!!!ENC: Andrzej Borzym
!!!END: 2021-01-26
!!!YEC: Copyright 2022 Narodowy Instytut Fryderyka Chopina (https://polishscores.org)
!!!YEM: License CC-BY-4.0 (https://creativecommons.org/licenses/by/4.0)
